symbolic/22x22/apps/desktop-environment-xfce.svg

<svg xmlns="http://www.w3.org/2000/svg" width="22" height="22" version="1.1">
 <circle style="opacity:0.2" cx="11" cy="11.5" r="10"/>
 <circle style="fill:#285da4" cx="11" cy="11" r="10"/>
 <path style="opacity:0.1;fill:#ffffff" d="M 11,1 A 10,10 0 0 0 1,11 10,10 0 0 0 1.01075,11.291 10,10 0 0 1 11,1.5 10,10 0 0 1 20.9895,11.209 10,10 0 0 0 21,11 10,10 0 0 0 11,1 Z"/>
 <path style="opacity:0.2" d="M 10.191406,4.5709397 C 10.001368,4.5750097 9.851473,4.6318117 9.798828,4.6314867 8.5823264,4.8005137 9.359499,6.075631 9.874998,7.6568772 9.919008,8.0616424 8.7712463,7.8932814 8.4941386,7.4693772 7.5595514,5.2075089 7.3094086,5.4589789 7.0488281,5.3932053 6.7992267,5.3423029 5.9319116,5.7789873 5.9511719,6.6939866 5.9544619,6.9568368 6.122526,8.8427114 6.125,9.227189 5.0293293,11.088183 4.4821571,12.930247 5.8554688,14.83461 c 0.9840729,1.289484 3.3488132,1.691801 4.9003902,1.664063 3.302,0.0013 4.908938,-1.791539 6.800782,-3.255859 C 19.00162,12.061081 17.518961,10.57153 17.169922,10.363907 14.176127,8.4276028 11.659512,8.8311464 11.619141,8.524065 11.597961,8.1691267 11.610141,6.782808 11.558591,6.4322678 11.3554,4.8010236 10.609486,4.5611747 10.191406,4.5709397 Z m 6.550782,0.4003906 C 16.12892,5.0665903 15.827506,8.540007 16.101562,9.065079 17.042321,8.4737707 16.862477,5.8509627 16.742188,4.9713303 Z m 2.125,0.8046875 c -1.941963,2.5528505 -1.481201,2.076392 -1.966797,4.1249992 0.185268,0.253498 2.697407,-3.8223869 1.966797,-4.1249992 z M 12,9.500626 c 0.552285,0 1,0.447715 1,1 0,0.552285 -0.447715,1 -1,1 -0.552285,0 -1,-0.447715 -1,-1 0,-0.552285 0.447715,-1 1,-1 z"/>
 <path style="fill:#ffffff" d="M 10.191406,4.0703125 C 10.001368,4.0743825 9.851473,4.1311845 9.798828,4.1308595 8.5823264,4.2998865 9.359499,5.5750038 9.875,7.15625 9.919013,7.5610152 8.7712483,7.3926542 8.4941406,6.96875 7.5595514,4.7068817 7.3094086,4.9583517 7.0488281,4.8925781 6.7992267,4.8416757 5.9319116,5.2783601 5.9511719,6.1933594 5.9544619,6.4562096 6.122526,8.3420844 6.125,8.7265625 5.0293293,10.587557 4.4821571,12.429621 5.8554688,14.333984 c 0.9840729,1.289484 3.3488132,1.691801 4.9003902,1.664063 3.302,0.0013 4.908938,-1.791539 6.800782,-3.255859 1.444979,-1.181733 -0.03768,-2.671284 -0.386719,-2.878907 -2.993795,-1.9363054 -5.51041,-1.5327611 -5.550781,-1.8398435 -0.02118,-0.354938 -0.009,-1.7412567 -0.06055,-2.0917969 C 11.3554,4.3003964 10.609486,4.0605475 10.191406,4.0703125 Z m 6.550782,0.4003906 c -0.613268,0.09526 -0.914682,3.5686769 -0.640626,4.09375 0.940759,-0.5913096 0.760915,-3.2141176 0.640626,-4.09375 z m 2.125,0.8046875 c -1.941963,2.5528505 -1.481201,2.076392 -1.966797,4.1250004 0.185268,0.253498 2.697407,-3.8223881 1.966797,-4.1250004 z M 12,9 c 0.552285,0 1,0.447715 1,1 0,0.552285 -0.447715,1 -1,1 -0.552285,0 -1,-0.447715 -1,-1 0,-0.552285 0.447715,-1 1,-1 z"/>
</svg>

<svg xmlns="http://www.w3.org/2000/svg" width="22" height="22"><circle style="opacity:.2" cx="11" cy="11.5" r="10"/><circle style="fill:#285da4" cx="11" cy="11" r="10"/><path style="opacity:.1;fill:#fff" d="M11 1A10 10 0 0 0 1 11a10 10 0 0 0 .01.291A10 10 0 0 1 11 1.5a10 10 0 0 1 9.99 9.709A10 10 0 0 0 21 11 10 10 0 0 0 11 1z"/><path style="opacity:.2" d="M10.191 4.57c-.19.005-.34.062-.392.061-1.217.17-.44 1.445.076 3.026.044.405-1.104.236-1.38-.188-.935-2.261-1.186-2.01-1.446-2.076-.25-.05-1.117.386-1.098 1.301.003.263.172 2.149.174 2.533-1.096 1.861-1.643 3.703-.27 5.608.985 1.29 3.35 1.691 4.9 1.664 3.303.001 4.91-1.792 6.802-3.256 1.445-1.182-.038-2.671-.387-2.88-2.994-1.935-5.51-1.532-5.55-1.839-.022-.355-.01-1.741-.061-2.092-.204-1.631-.95-1.87-1.368-1.861zm6.551.401c-.613.096-.914 3.569-.64 4.094.94-.591.76-3.214.64-4.094zm2.125.805c-1.942 2.553-1.481 2.076-1.967 4.125.186.254 2.698-3.822 1.967-4.125zM12 9.501a1 1 0 1 1 0 2 1 1 0 0 1 0-2z"/><path style="fill:#fff" d="M10.191 4.07c-.19.004-.34.061-.392.06-1.217.17-.44 1.445.076 3.026.044.405-1.104.237-1.38-.187-.935-2.262-1.186-2.01-1.446-2.076-.25-.051-1.117.385-1.098 1.3.003.263.172 2.15.174 2.534-1.096 1.86-1.643 3.703-.27 5.607.985 1.29 3.35 1.692 4.9 1.664 3.303.001 4.91-1.791 6.802-3.256 1.445-1.182-.038-2.671-.387-2.879-2.994-1.936-5.51-1.532-5.55-1.84-.022-.355-.01-1.74-.061-2.091-.204-1.632-.95-1.871-1.368-1.862zm6.551.4c-.613.096-.914 3.57-.64 4.094.94-.59.76-3.214.64-4.093zm2.125.805C16.925 7.828 17.386 7.352 16.9 9.4c.186.254 2.698-3.822 1.967-4.125zM12 9a1 1 0 1 1 0 2 1 1 0 0 1 0-2z"/></svg>
